src/src/resources/images/tree/svg/rc-file-requireslock.svg

<svg width="32" height="32" shape-rendering="crispEdges" version="1.1" viewBox="0 0 8.467 8.467" xmlns="http://www.w3.org/2000/svg">
  <g transform="translate(0 -288.5)">
    <g>
      <path d="m1.19 296.9v-8.202h3.881l1.94 2.237v5.965z" fill="#f2f2f9" stroke="#9c9cb6" stroke-width=".2646"/>
      <path d="m4.895 288.7v2.38h2.115" fill="#d0d0df" stroke="#9c9cb6" stroke-width=".2646px"/>
      <path d="m2.514 293.4h3.175v2.117h-3.175z" fill="#646464" stroke="#646464" stroke-width=".2646"/>
    </g>
    <path d="M3.175 293.296v-1.567c0-.072.198-.285.265-.285h1.322c.067 0 .265.225.265.285v1.567" fill="none" stroke="#646464" stroke-width=".5292"/>
    <path d="m1.323 296.2h1.058v0.529h-1.058zm0-1.058h1.058v0.529h-1.058zm0-1.058h1.058v0.529h-1.058zm0-1.059h1.058v0.529h-1.058z" fill="#d7af00" fill-rule="evenodd" shape-rendering="crispEdges" style="paint-order:stroke markers fill"/>
    <path d="m5.821 296.2h1.058v0.529h-1.058zm0-1.058h1.058v0.529h-1.058zm0-1.058h1.058v0.529h-1.058zm0-1.059h1.058v0.529h-1.058z" fill="#2bcc2a" fill-rule="evenodd" shape-rendering="crispEdges" style="paint-order:stroke markers fill"/>
  </g>
</svg>

<svg xmlns="http://www.w3.org/2000/svg" xmlns:xlink="http://www.w3.org/1999/xlink" width="32" height="32" viewBox="0 0 8.467 8.467" shape-rendering="crispEdges">
    <g transform="translate(0 -288.533)">
        <path style="fill:#f2f2f9;fill-opacity:1;stroke:#9c9cb6;stroke-width:.26458335;stroke-linecap:butt;stroke-linejoin:miter;stroke-miterlimit:4;stroke-dasharray:none;stroke-opacity:1" d="M1.19 296.868v-8.202h3.881l1.94 2.237v5.965z"/>
        <path style="fill:#d0d0df;stroke:#9c9cb6;stroke-width:.26458335px;stroke-linecap:butt;stroke-linejoin:miter;stroke-opacity:1;fill-opacity:1" d="M4.895 288.666v2.38H7.01"/>
        <path style="fill:#646464;fill-opacity:1;stroke:#646464;stroke-width:.26458335;stroke-miterlimit:4;stroke-dasharray:none;stroke-opacity:1" d="M2.514 293.428h3.175v2.117H2.514z"/>
        <path style="fill:none;stroke:#646464;stroke-width:.5291667;stroke-linecap:butt;stroke-linejoin:miter;stroke-miterlimit:4;stroke-dasharray:none;stroke-opacity:1" d="M3.175 293.296v-1.567c0-.072.198-.285.265-.285h1.322c.067 0 .265.225.265.285v1.567"/>
        <path style="opacity:1;fill:#d7af00;fill-opacity:1;fill-rule:evenodd;stroke:none;stroke-width:.5291667;stroke-linejoin:round;stroke-miterlimit:4;stroke-dasharray:none;stroke-opacity:1;paint-order:stroke markers fill;shape-rendering:crispEdges" d="M1.323 296.206h1.058v.529H1.323zM1.323 295.148h1.058v.529H1.323zM1.323 294.09h1.058v.529H1.323zM1.323 293.031h1.058v.529H1.323z"/>
        <path style="opacity:1;fill:#2bcc2a;fill-opacity:1;fill-rule:evenodd;stroke:none;stroke-width:.5291667;stroke-linejoin:round;stroke-miterlimit:4;stroke-dasharray:none;stroke-opacity:1;paint-order:stroke markers fill;shape-rendering:crispEdges" d="M5.821 296.206h1.058v.529H5.821zM5.821 295.148h1.058v.529H5.821zM5.821 294.09h1.058v.529H5.821zM5.821 293.031h1.058v.529H5.821z"/>
        <image y="288.533" x="-8.731" xlink:href="data:image/png;base64,iVBORw0KGgoAAAANSUhEUgAAABAAAAAQCAMAAAAoLQ9TAAAABGdBTUEAAK/INwWK6QAAABhQTFRF 09Ph168AK8wq0NDfnJy2ZGRk8vL5zMzMpA8AXQAAAAh0Uk5T/////////wDeg71ZAAAAGXRFWHRT b2Z0d2FyZQBBZG9iZSBJbWFnZVJlYWR5ccllPAAAAERJREFUKJGlzjESACAIA0FQIP//sSA6YmPj deykgIC+EkTkYFlKBZIbxLsg7IBqAWbzU621s5jwWuisLBL+FvnnXkgJGNlABT1zZSrSAAAAAElF TkSuQmCC" style="stroke-width:.5;image-rendering:optimizeSpeed;shape-rendering:crispEdges" preserveAspectRatio="none" height="8.467" width="8.467"/>
    </g>
</svg>
